packages/ui-kit/src/icons/svg/open-source-small.svg

<svg viewBox="0 0 25 25" width="25px" height="25px" xmlns="http://www.w3.org/2000/svg">
  <g fill-rule="nonzero" fill="none">
    <path d="M5.6 12.5h-.8V6c0-.6.5-1.2 1.2-1.2h4.2v.8H6c-.2 0-.4.2-.4.4v6.5zM12.5 20.2H6c-.6 0-1.2-.5-1.2-1.2v-4.2h.8V19c0 .2.2.4.4.4h6.5v.8zM19 20.2h-4.2v-.8H19c.2 0 .4-.2.4-.4v-6.5h.8V19c0 .7-.5 1.2-1.2 1.2zM20.2 10.2h-.8V6c0-.2-.2-.4-.4-.4h-6.5v-.8H19c.6 0 1.2.5 1.2 1.2v4.2z" fill="gray"/>
    <path d="M12.5 5.6c-1.3 0-2.3-1-2.3-2.3 0-1.3 1-2.3 2.3-2.3 1.3 0 2.3 1 2.3 2.3 0 1.3-1 2.3-2.3 2.3zm0-3.9c-.8 0-1.5.7-1.5 1.5s.7 1.5 1.5 1.5S14 4 14 3.2s-.7-1.5-1.5-1.5zM21.7 14.8c-1.3 0-2.3-1-2.3-2.3 0-1.3 1-2.3 2.3-2.3 1.3 0 2.3 1 2.3 2.3 0 1.3-1 2.3-2.3 2.3zm0-3.8c-.8 0-1.5.7-1.5 1.5s.7 1.5 1.5 1.5 1.5-.7 1.5-1.5-.6-1.5-1.5-1.5zM12.5 24c-1.3 0-2.3-1-2.3-2.3 0-1.3 1-2.3 2.3-2.3 1.3 0 2.3 1 2.3 2.3 0 1.3-1 2.3-2.3 2.3zm0-3.8c-.8 0-1.5.7-1.5 1.5s.7 1.5 1.5 1.5 1.5-.7 1.5-1.5-.7-1.5-1.5-1.5zM3.3 14.8c-1.3 0-2.3-1-2.3-2.3 0-1.3 1-2.3 2.3-2.3 1.3 0 2.3 1 2.3 2.3 0 1.3-1 2.3-2.3 2.3zm0-3.8c-.8 0-1.5.7-1.5 1.5S2.4 14 3.3 14s1.5-.7 1.5-1.5S4.1 11 3.3 11z" fill="gray"/>
    <path fill="#044E7C" d="M9.5 14.7l-2.2-2.2 2.2-2.2.6.6-1.7 1.6 1.7 1.6zM15.5 14.7l-.6-.6 1.7-1.6-1.7-1.6.6-.6 2.2 2.2zM10.206 15.802l3.839-6.905.874.485-3.838 6.905z"/>
  </g>
</svg>

<?xml version="1.0" encoding="UTF-8"?>
<svg width="25px" height="25px" viewBox="0 0 25 25" version="1.1" xmlns="http://www.w3.org/2000/svg" xmlns:xlink="http://www.w3.org/1999/xlink">
    <title>open_source_25x25</title>
    <g id="Color-Scheme---Products-/-Solution" stroke="none" stroke-width="1" fill="none" fill-rule="evenodd">
        <g id="Icon-final" transform="translate(-453.000000, -119.000000)" fill-rule="nonzero">
            <g id="open_source_25x25" transform="translate(453.000000, 119.000000)">
                <path d="M5.6,12.5 L4.8,12.5 L4.8,6 C4.8,5.4 5.3,4.8 6,4.8 L10.2,4.8 L10.2,5.6 L6,5.6 C5.8,5.6 5.6,5.8 5.6,6 L5.6,12.5 Z" id="Path" fill="#808080"></path>
                <path d="M12.5,20.2 L6,20.2 C5.4,20.2 4.8,19.7 4.8,19 L4.8,14.8 L5.6,14.8 L5.6,19 C5.6,19.2 5.8,19.4 6,19.4 L12.5,19.4 L12.5,20.2 Z" id="Path" fill="#808080"></path>
                <path d="M19,20.2 L14.8,20.2 L14.8,19.4 L19,19.4 C19.2,19.4 19.4,19.2 19.4,19 L19.4,12.5 L20.2,12.5 L20.2,19 C20.2,19.7 19.7,20.2 19,20.2 Z" id="Path" fill="#808080"></path>
                <path d="M20.2,10.2 L19.4,10.2 L19.4,6 C19.4,5.8 19.2,5.6 19,5.6 L12.5,5.6 L12.5,4.8 L19,4.8 C19.6,4.8 20.2,5.3 20.2,6 L20.2,10.2 Z" id="Path" fill="#808080"></path>
                <path d="M12.5,5.6 C11.2,5.6 10.2,4.6 10.2,3.3 C10.2,2 11.2,1 12.5,1 C13.8,1 14.8,2 14.8,3.3 C14.8,4.6 13.8,5.6 12.5,5.6 Z M12.5,1.7 C11.7,1.7 11,2.4 11,3.2 C11,4 11.7,4.7 12.5,4.7 C13.3,4.7 14,4 14,3.2 C14,2.4 13.3,1.7 12.5,1.7 Z" id="Shape" fill="#808080"></path>
                <path d="M21.7,14.8 C20.4,14.8 19.4,13.8 19.4,12.5 C19.4,11.2 20.4,10.2 21.7,10.2 C23,10.2 24,11.2 24,12.5 C24,13.8 23,14.8 21.7,14.8 Z M21.7,11 C20.9,11 20.2,11.7 20.2,12.5 C20.2,13.3 20.9,14 21.7,14 C22.5,14 23.2,13.3 23.2,12.5 C23.2,11.7 22.6,11 21.7,11 Z" id="Shape" fill="#808080"></path>
                <path d="M12.5,24 C11.2,24 10.2,23 10.2,21.7 C10.2,20.4 11.2,19.4 12.5,19.4 C13.8,19.4 14.8,20.4 14.8,21.7 C14.8,23 13.8,24 12.5,24 Z M12.5,20.2 C11.7,20.2 11,20.9 11,21.7 C11,22.5 11.7,23.2 12.5,23.2 C13.3,23.2 14,22.5 14,21.7 C14,20.9 13.3,20.2 12.5,20.2 Z" id="Shape" fill="#808080"></path>
                <path d="M3.3,14.8 C2,14.8 1,13.8 1,12.5 C1,11.2 2,10.2 3.3,10.2 C4.6,10.2 5.6,11.2 5.6,12.5 C5.6,13.8 4.6,14.8 3.3,14.8 Z M3.3,11 C2.5,11 1.8,11.7 1.8,12.5 C1.8,13.3 2.4,14 3.3,14 C4.2,14 4.8,13.3 4.8,12.5 C4.8,11.7 4.1,11 3.3,11 Z" id="Shape" fill="#808080"></path>
                <polygon id="Path" fill="#044E7C" points="9.5 14.7 7.3 12.5 9.5 10.3 10.1 10.9 8.4 12.5 10.1 14.1"></polygon>
                <polygon id="Path" fill="#044E7C" points="15.5 14.7 14.9 14.1 16.6 12.5 14.9 10.9 15.5 10.3 17.7 12.5"></polygon>
                <rect id="Rectangle" fill="#044E7C" transform="translate(12.474510, 12.543600) rotate(-60.933152) translate(-12.474510, -12.543600) " x="8.52475167" y="12.1436245" width="7.89951666" height="1"></rect>
            </g>
        </g>
    </g>
</svg>
